svg/fluentui-system-icons/ic_fluent_food_grains_24_regular.svg

<svg width="24" height="24" viewBox="0 0 24 24" fill="none" xmlns="http://www.w3.org/2000/svg">
<path d="M11.3892 2.28688C9.36487 4.04712 8.57526 6.65119 9.02032 9.06973C7.4981 8.19392 5.82021 7.92924 3.89213 8.08991C3.36588 8.13377 2.96928 8.59789 3.01769 9.13047C3.17454 10.8558 3.96958 12.5677 5.07768 13.906C4.66531 13.902 4.24844 13.927 3.82943 13.9829C3.33885 14.0483 2.97695 14.4857 3.01551 14.987C3.31992 18.9444 6.61983 22.0002 10.5889 22.0002H12.7135L12.7349 21.9999H13.4103C17.3794 21.9999 20.6793 18.9441 20.9837 14.9868C21.0223 14.4854 20.6604 14.0481 20.1698 13.9826C19.7557 13.9274 19.3437 13.9023 18.9361 13.9056C20.0441 12.5674 20.8388 10.8557 20.9957 9.13047C21.0441 8.59789 20.6475 8.13377 20.1212 8.08991C18.1931 7.92923 16.5056 8.19378 14.9786 9.07073C15.4241 6.6519 14.6346 4.04736 12.61 2.28688C12.26 1.9825 11.7392 1.9825 11.3892 2.28688ZM11.9996 11.7261C9.86681 9.51278 9.86681 5.98717 11.9996 3.77388C14.1323 5.98717 14.1323 9.51278 11.9996 11.7261ZM11.9995 17.3343C10.9126 15.9516 9.43438 14.9105 7.76603 14.3559C7.73475 14.3253 7.70034 14.297 7.6629 14.2715C6.19291 13.2705 4.94353 11.4266 4.58959 9.55093C6.45872 9.4888 7.92612 9.93819 9.26483 11.0722C10.29 11.9406 10.7446 13.0002 11.0824 13.7873C11.1697 13.9909 11.2492 14.1762 11.3288 14.3353C11.4558 14.5894 11.7155 14.7499 11.9996 14.7499C12.2837 14.7499 12.5434 14.5894 12.6704 14.3353C12.75 14.1762 12.8295 13.9908 12.9169 13.7873C13.2546 13.0001 13.7093 11.9404 14.7344 11.0721C16.0725 9.93852 17.5514 9.4887 19.4238 9.55094C19.0699 11.4267 17.8207 13.2706 16.3506 14.2715C16.3162 14.2949 16.2844 14.3206 16.2552 14.3483C14.5778 14.9011 13.0912 15.9454 11.9995 17.3343ZM12.6434 19.0398C14.0356 16.7092 16.6453 15.2594 19.4216 15.4172C18.9345 18.3241 16.4106 20.4999 13.4103 20.4999H12.7239L12.7052 20.5002H10.5889C7.58857 20.5002 5.06472 18.3243 4.57759 15.4175C7.35387 15.2597 9.9635 16.7093 11.3557 19.0399C11.491 19.2665 11.7356 19.4052 11.9995 19.4052C12.2635 19.4052 12.5081 19.2665 12.6434 19.0398Z" fill="#212121"/>
</svg>

<svg xmlns="http://www.w3.org/2000/svg" width="24" height="24"><path d="M11.39 2.287A7.227 7.227 0 0 0 9.02 9.07c-1.522-.876-3.2-1.14-5.128-.98a.958.958 0 0 0-.874 1.04c.157 1.726.952 3.438 2.06 4.776a8.79 8.79 0 0 0-1.249.077.94.94 0 0 0-.813 1.004A7.596 7.596 0 0 0 10.589 22h2.821a7.596 7.596 0 0 0 7.574-7.013.94.94 0 0 0-.814-1.004 8.795 8.795 0 0 0-1.234-.077c1.108-1.339 1.903-3.05 2.06-4.776a.958.958 0 0 0-.875-1.04c-1.928-.16-3.615.104-5.142.98a7.227 7.227 0 0 0-2.369-6.783.93.93 0 0 0-1.22 0Zm.61 9.44a5.742 5.742 0 0 1 0-7.953 5.742 5.742 0 0 1 0 7.952Zm0 5.607a9.016 9.016 0 0 0-4.234-2.978.756.756 0 0 0-.103-.085c-1.47-1-2.72-2.844-3.073-4.72 1.869-.062 3.336.387 4.675 1.521 1.025.869 1.48 1.928 1.817 2.715.088.204.167.39.247.548a.75.75 0 0 0 1.341 0c.08-.159.16-.344.247-.548.338-.787.792-1.847 1.817-2.715 1.339-1.133 2.817-1.583 4.69-1.521-.354 1.876-1.603 3.72-3.073 4.72a.758.758 0 0 0-.096.077A9.017 9.017 0 0 0 12 17.334Zm.643 1.706c1.393-2.33 4.002-3.78 6.779-3.623A6.096 6.096 0 0 1 13.41 20.5h-2.82c-3 0-5.524-2.176-6.011-5.082 2.776-.158 5.385 1.291 6.778 3.622a.75.75 0 0 0 1.287 0Z"/></svg>
